X: 1
T: Sweet Jenny Jones
S: MDT
O: Adderbury
P: A.(AB)6
B: Morris Ring
Z: 2005 John Chambers <jc@trillian.mit.edu>
W: My sweet Jenny Jones is the pride of Llangollen,
W: My sweet Jenny Jones is the girl I love best.
M: 3/4
L: 1/8
K: C
P: A
G2 | c2 G2 E2 | C3  D E2 | F2 "*"A2 d2 | B2 G2 B2 |
     c2 G2 E2 | F3  G A2 | G2    c2 B2 | c4      ||
P: B
cd | e2 c2 e2 | d2 B2 G2 | c2    A2 c2 | B2 G2 cd |
     e2 c2 e2 | d2 B2 G2 | c2    B2 A2 | G4    AB |
     c2 G2 E2 | C3  D E2 | F2 "*"A2 d2 | B2 G2 B2 |
     c2 G2 E2 | F3  G A2 | G2    c2 B2 | c4      ||
P: alt.bar A3 *
   | F2 d2 c2 |
